Adwaita++-Dark/mimetypes/16/gdform.svg

<svg height="16" viewBox="0 0 16 16" width="16" xmlns="http://www.w3.org/2000/svg">
  <path d="m3.428571 13.142857v1.142857h12.571429v-1.142857zm0-11.428571v2.285714h12.571429v-2.285714zm0 4.571428v2.285715h12.571429v-2.285715zm0 2.285715v1.142857h12.571429v-1.142857zm0 2.285714v2.285714h12.571429v-2.285714zm0-6.857143v1.142857h12.571429v-1.142857zm-3.428571-2.285714h2.285714v2.285714h-2.285714zm0 2.285714h2.285714v1.142857h-2.285714zm0 2.285714h2.285714v2.285715h-2.285714zm0 2.285715h2.285714v1.142857h-2.285714zm0 2.285714h2.285714v2.285714h-2.285714zm0 2.285714h2.285714v1.142857h-2.285714z" fill="#e6ddff" fill-rule="evenodd"/>
</svg>

<svg xmlns="http://www.w3.org/2000/svg" style="isolation:isolate" width="16" height="16" version="1.1" viewBox="0 0 16 16">
 <defs>
  <style id="current-color-scheme" type="text/css">
   .ColorScheme-Text { color:#E6DDFF; } .ColorScheme-Highlight { color:#5294e2; }
  </style>
  <linearGradient id="arrongin" x1="0%" x2="0%" y1="0%" y2="100%">
   <stop style="stop-color:#dd9b44" id="stop3" offset="0%"/>
   <stop style="stop-color:#ad6c16" id="stop5" offset="100%"/>
  </linearGradient>
  <linearGradient id="aurora" x1="0%" x2="0%" y1="0%" y2="100%">
   <stop style="stop-color:#09D4DF" id="stop8" offset="0%"/>
   <stop style="stop-color:#9269F4" id="stop10" offset="100%"/>
  </linearGradient>
  <linearGradient id="fitdance" x1="0%" x2="0%" y1="0%" y2="100%">
   <stop style="stop-color:#1AD6AB" id="stop13" offset="0%"/>
   <stop style="stop-color:#329DB6" id="stop15" offset="100%"/>
  </linearGradient>
  <linearGradient id="oomox" x1="0%" x2="0%" y1="0%" y2="100%">
   <stop style="stop-color:#efefe7" id="stop18" offset="0%"/>
   <stop style="stop-color:#8f8f8b" id="stop20" offset="100%"/>
  </linearGradient>
  <linearGradient id="rainblue" x1="0%" x2="0%" y1="0%" y2="100%">
   <stop style="stop-color:#00F260" id="stop23" offset="0%"/>
   <stop style="stop-color:#0575E6" id="stop25" offset="100%"/>
  </linearGradient>
  <linearGradient id="sunrise" x1="0%" x2="0%" y1="0%" y2="100%">
   <stop style="stop-color:#FF8501" id="stop28" offset="0%"/>
   <stop style="stop-color:#FFCB01" id="stop30" offset="100%"/>
  </linearGradient>
  <linearGradient id="telinkrin" x1="0%" x2="0%" y1="0%" y2="100%">
   <stop style="stop-color:#b2ced6" id="stop33" offset="0%"/>
   <stop style="stop-color:#6da5b7" id="stop35" offset="100%"/>
  </linearGradient>
  <linearGradient id="60spsycho" x1="0%" x2="0%" y1="0%" y2="100%">
   <stop style="stop-color:#df5940" id="stop38" offset="0%"/>
   <stop style="stop-color:#d8d15f" id="stop40" offset="25%"/>
   <stop style="stop-color:#e9882a" id="stop42" offset="50%"/>
   <stop style="stop-color:#279362" id="stop44" offset="100%"/>
  </linearGradient>
  <linearGradient id="90ssummer" x1="0%" x2="0%" y1="0%" y2="100%">
   <stop style="stop-color:#f618c7" id="stop47" offset="0%"/>
   <stop style="stop-color:#94ffab" id="stop49" offset="20%"/>
   <stop style="stop-color:#fbfd54" id="stop51" offset="50%"/>
   <stop style="stop-color:#0f83ae" id="stop53" offset="100%"/>
  </linearGradient>
  <linearGradient id="cyberneon" x1="0%" x2="0%" y1="0%" y2="100%">
   <stop style="stop-color:#0abdc6" id="stop56" offset="0"/>
   <stop style="stop-color:#ea00d9" id="stop58" offset="1"/>
  </linearGradient>
 </defs>
 <path style="fill:currentColor;fill-rule:evenodd" class="ColorScheme-Text" d="m 3.428571,13.142857 v 1.142857 H 16 V 13.142857 H 3.428571 v 0 0 z m 0,-11.428571 V 4 H 16 V 1.714286 H 3.428571 v 0 0 0 0 0 0 z m 0,4.571428 V 8.571429 H 16 V 6.285714 H 3.428571 v 0 0 0 0 0 z m 0,2.285715 V 9.714286 H 16 V 8.571429 H 3.428571 v 0 0 0 0 z m 0,2.285714 v 2.285714 H 16 V 10.857143 H 3.428571 v 0 0 0 z M 3.428571,4 V 5.142857 H 16 V 4 H 3.428571 V 4 4 4 4 4 4 Z M 0,1.714286 H 2.285714 V 4 H 0 v -2.285714 0 z M 0,4 H 2.285714 V 5.142857 H 0 V 4 Z M 0,6.285714 H 2.285714 V 8.571429 H 0 Z M 0,8.571429 H 2.285714 V 9.714286 H 0 Z m 0,2.285714 h 2.285714 v 2.285714 H 0 Z m 0,2.285714 h 2.285714 v 1.142857 H 0 Z"/>
</svg>
